svgs/sharp-light/mobile-screen-button.svg

<svg xmlns="http://www.w3.org/2000/svg" viewBox="0 0 384 512"><!--! Font Awesome Pro 6.6.0 by @fontawesome - https://fontawesome.com License - https://fontawesome.com/license (Commercial License) Copyright 2024 Fonticons, Inc. --><path d="M320 32l0 288L64 320 64 32l256 0zm0 320l0 128L64 480l0-128 256 0zM64 0L32 0l0 32 0 448 0 32 32 0 256 0 32 0 0-32 0-448 0-32L320 0 64 0zM216 416a24 24 0 1 0 -48 0 24 24 0 1 0 48 0z"/></svg>

<svg xmlns="http://www.w3.org/2000/svg" viewBox="0 0 384 512"><!--! Font Awesome Pro 6.4.2 by @fontawesome - https://fontawesome.com License - https://fontawesome.com/license (Commercial License) Copyright 2023 Fonticons, Inc. --><path d="M320 32V320H64V32H320zm0 320V480H64V352H320zM64 0H32V32 480v32H64 320h32V480 32 0H320 64zM216 416a24 24 0 1 0 -48 0 24 24 0 1 0 48 0z"/></svg>
